X:1
T:Title
L:1/8
Q:1/4=140
M:6/8
K:Bb
V:1 treble nm="Grand Piano"
V:1
 z2 F F2 G | G2 F z DG | F6- | F2 D D2 E | F3 _A3 | G3- G2 D | E6- | E2 E E2 F | F2 E z CF | E6- | %10
 E2 C C2 D | E2 A- AGF | D6- | D2 F F2 ^F | ^F2 =F F2 _D | F2 F F2 ^F | ^F2 =F B2 F | ^F6- | F6- | %19
 F2 E E2 c | c2 B B2 A | A2 ^F F2 =F | F2 E EDE | F6- | F3 F3 | d3- d2 c | B2 A c2 B | E6- | E6- | %29
 E2 C C2 D | E3- E2 G | F6- | F3 F3 | d3- d2 c | B2 A c2 B | E6- | E6- | E2 C C2 D | E3- E2 A, | %39
 B,6 |] %40

